!!!OTL:Rheinweinlied.
!!!OTL-incipit: BEKRAENZT MIT LAUB DEN LIEBEN VOLLEN BECHER
!!!COM: J. Andre
!!!ARE: Europa, Mitteleuropa, Deutschland
!!!SCT: F0764
!!!TXL: @@DE
!!!YEM: Copyright 1995, estate of Helmut Schaffrath.
**kern	**text
*ICvox	*
*M2/4	*
*k[b-e-]	*
*B-:	*
!LO:TX:a:t=Fröhlich.	!
{8f	1._Bekränʒt
=1	=1
4b-/	.
4b-/	mit
=2	=2
4.b-/}	Laub
{8g	den
=3	=3
8f	lie-
8d	-ben
8g	vol-
8f	-len
=4	=4
8.fL	Be-
16e-J	.
8d}	-cher,
{8f	und
=5	=5
8dd/	trinkt
8b-/	ihn
8ff/	fröh-
8dd/	-lich
=6	=6
4.cc/}	leer,
{8b-/	und
=7	=7
8a	trinkt
8f	ihn
4cc	frölich
8cc	.
=8	=8
4f	leer!
8r}	.
{8f	Jn
=9	=9
4g	ganʒ
4a	Eu-
=10	=10
4.b-/}	-ro-
{8cc/	-pi-
=11	=11
8dd	-a,
8b-	ihr
8ee-/	Herren
8dd/	.
=12	=12
8dd/	Ʒe-
8cc/	-cher,
8r}	.
{8ff	iſt
=13	=13
8ee-	ſolch
8dd	ein
8cc	Wein
8b-/	nicht
=14	=14
8a}	mehr,
{8g	iſt
8f	ſolch
8b-/	ein
=15	=15
4cc/	Wein
4a	nicht
=16	=16
4b-/;	mehr.
8r}	.
==	==
!!!AGN: Geselligkeits -, Trink - Lied
!!!ONB: ESAC (Essen Associative Code) Database: FINK
!!!AMT: simple duple
!!!AIN: vox
!!!EED: Helmut Schaffrath
!!!EEV: 1.0
!!Text: M. Claudius
!!!GTL: Liedertafel- und Gesellschaftslieder.
!!!source: Musikalischer Hausschatz der Deutschen. Eine Sammlung von über 1000 Liedern und Gesängen mit Singstimmen und Klavierbegleitung. Leipzig, Litterarisches Verlags-Haus.
!!!page: 525
!!!ENC: Anna Maria Matuszewska
!!!EEV: 2025/03/19
*-	*-
